!!!!SEGMENT: pl-sa--l-1643--076_anonim--laetamini-in-domino-et-exultate-iusti.krn
!!!cenid: 16xx:1434
!!!COM: Anonim
!!!COM-rismID: pe30004985
!!!CDT:
!!!CNT:
!!!OTL: Laetamini in domino et exultate iusti
!!!PDT:
!!!AGN: Sacred
!!!SMS-siglum: PL-SA
!!!SMS-shelfmark: L 1643
!!!SMS-shelfwork: 076 W
!!!SMS-variant:
!!!SMS-altvar:
!!!NIFC-rismSourceID: 1001064405
!!!NIFC-islandoraID:
!!!URL-pdf-islandora:
!!!URL-scan:
!!!ONB-nifc: UWAGA: 8 ksiąg. Primi chori: 1mus Cantus (x), C 2dus (122-123), C 3tius (x), Bassus (x); Secondi chori: Primus Cantus (x), C 2dus (105), Altus (x), Bassus (128). UWAGA: Nie dodawać pustych linii, chyba że w rękopisie pojawiają się dodatkowe oznaczenia dotyczące pełnej obsady (a 4, a 8 itp.)
!!!AIN: 1 alto 2 soprn
!!!key: g:dor
**kern	**text	**kern	**text	**kern	**text
*part3	*part3	*part2	*part2	*part1	*part1
*group2	*group2	*group2	*group2	*group1	*group1
*staff3	*staff3	*staff2	*staff2	*staff1	*staff1
*I"Baſsus 2di Chori	*	*I"Cantus 2dus Secundi Chori.	*	*I"Cantus 2dus Primi Chori.	*
*I'Coro 2: B	*	*I'Coro 2: S 2	*	*I'Coro 1: S 2	*
*Ialto	*	*Isoprn	*	*Isoprn	*
*ICvox	*	*ICvox	*	*ICvox	*
*clefC3	*	*clefC1	*	*clefC1	*
*k[b-]	*	*k[b-]	*	*k[b-]	*
*g:dor	*	*g:dor	*	*g:dor	*
*M2/2	*	*M2/2	*	*M2/2	*
*met(C|) 	*	*met(C|) 	*	*met(C|) 	*
=1-	=1-	=1-	=1-	=1-	=1-
!!LO:TX:t=P:problem:oddech/cezura na różnej wysokości
00r	.	00r	.	2g/	Le-
.	.	.	.	4g/	-ta-
.	.	.	.	4a\	-mi-
=2-	=2-	=2-	=2-	=2-	=2-
.	.	.	.	2.b-\	-ni
.	.	.	.	8a\L	.
.	.	.	.	8g\J	.
=3-	=3-	=3-	=3-	=3-	=3-
.	.	.	.	8f\L	in
.	.	.	.	8g\	.
.	.	.	.	8a\	.
.	.	.	.	8b-\J	.
.	.	.	.	2cc\	.
=4-	=4-	=4-	=4-	=4-	=4-
.	.	.	.	2.b-\	do-
.	.	.	.	8a\L	.
.	.	.	.	8g\J	.
=5-	=5-	=5-	=5-	=5-	=5-
0r	.	1r	.	2.a\	.
.	.	.	.	4a\	-mi-
=6-	=6-	=6-	=6-	=6-	=6-
.	.	2g/	Le-	2g/	-no
.	.	4g/	-ta-	2r	.
.	.	4a\	-mi-	.	.
=7-	=7-	=7-	=7-	=7-	=7-
2G/	Le-	2.b-\	-ni	0r	.
4G/	-ta-	.	.	.	.
4A/	-mi-	8a\L	.	.	.
.	.	8g\J	.	.	.
=8-	=8-	=8-	=8-	=8-	=8-
2B-/	-ni	8f/L	.	.	.
.	.	8g/	.	.	.
.	.	8a/	.	.	.
.	.	8b-/J	.	.	.
2F/	in	2cc,<\	.	.	.
=9-	=9-	=9-	=9-	=9-	=9-
4G/	Do-	1b-	in	2r	.
4A/	.	.	.	.	.
4B-/	.	.	.	2dd\	in
4c/	.	.	.	.	.
=10-	=10-	=10-	=10-	=10-	=10-
2.d\	.	2.a\	do-	2.dd\	do-
4d\	-mi-	4a\	-mi-	4dd\	-mi-
=11-	=11-	=11-	=11-	=11-	=11-
!	!	!	!	!LO:N:acc=#	!
!	!	!LO:SIC:v:s=1bn	!	!LO:TX:a:t=P:problem:# below	!
1g	-no	1b-	-no;	1bn	-no
*	*	*	*	*custos:dd	*
=12-	=12-	=12-	=12-	=12-	=12-
*M3/2	*	*M3/2	*	*M3/2	*
!	!	!	!	!LO:LB:g=original	!
!	!	!	!	!LO:TX:t=P:problem:metrum na końcu systemu, przed nim custos	!
1.r	.	1.r	.	2dd\	et
.	.	.	.	2dd\	e-
.	.	.	.	2b-y\	-xul-
=13-	=13-	=13-	=13-	=13-	=13-
2d\	et	2a\	Et	1a	-ta-
2d\	e-	2a\	e-	.	.
2g\	-xul-	2b-\	-xul-	2dd,\	-te
=14-	=14-	=14-	=14-	=14-	=14-
1d	-ta-	1dd	-ta-	2a\	et
.	.	.	.	2dd\	e-
2G/	-te	2dd,<\	-te	2b-\	-xul-
=15-	=15-	=15-	=15-	=15-	=15-
2d\	et	2a\	et	1a	-ta-
2d\	e-	2a\	e-	.	.
2g\	-xul-	2b-\	-xul-	2dd,\	-te
*	*	*custos:dd	*	*	*
=16-	=16-	=16-	=16-	=16-	=16-
!	!	!LO:LB:g=original	!	!	!
1d	-ta-	1dd	-ta-	2a\	et
.	.	.	.	2a\	e-
2G/	-te	2dd\	-te,	2g/	-xul-
=17-	=17-	=17-	=17-	=17-	=17-
1.r	.	1.r	.	1a	-ta-
.	.	.	.	2g/	-te,
*custos:B	*	*	*	*	*
=18-	=18-	=18-	=18-	=18-	=18-
*M2/2	*	*M2/2	*	*M2/2	*
*met(C|)	*	*met(C|)	*	*met(C|)	*
!LO:LB:g=original	!	!	!	!	!
4B-/	et	4b-\	et	4b-\	et
4B-/	e-	4b-\	e-	4b-\	e-
2f\	-xul-	2a\	-xul-	2cc\	-xul-
=19-	=19-	=19-	=19-	=19-	=19-
2c/	-ta-	2cc\	-ta-	2cc\	-ta-
2g\	-te	2dd\	-te	2b-\	-te
=20-	=20-	=20-	=20-	=20-	=20-
1d	iu-	1dd	iu-	1a	iu-
=21-	=21-	=21-	=21-	=21-	=21-
!	!	!LO:TX:a:t=P:problem:# below	!	!LO:SIC:v:s=2bn\	!
!	!	!LO:N:acc=#	!	!LO:SIC:v:l:t=custos “et”	!
2g\	-ſti	2bn\	-ſti,	2b-\	-ſti
*	*	*	*	*custos:a	*
!	!	!	!	!LO:PB:g=original	!
2d\	et	2a\	et	2r	.
=22-	=22-	=22-	=22-	=22-	=22-
4.g\	glo-	4.b-y\	glo-	2r	.
8g\	-ri-	8b-\	-ri-	.	.
4f\	-a-	4a\	-a-	4r	.
4f\	-mi-	4a\	-mi-	4a\	et
=23-	=23-	=23-	=23-	=23-	=23-
2B-/	-ni	2b-\	-ni,	4.b-\	glo-
.	.	.	.	8b-\	-ri-
4r	.	4r	.	4a\	-a-
4f\	et	4a\	et	4a\	-mi-
=24-	=24-	=24-	=24-	=24-	=24-
4.B-/	glo-	4.f/	glo-	2b-\	-ni,
8B-/	-ri-	8f/	-ri-	.	.
4.f\	-a-	4a\	-a-	4r	.
.	.	4a\	-mi-	4cc\	et
8f\	-mi-	.	.	.	.
=25-	=25-	=25-	=25-	=25-	=25-
2B-/	-ni	2b-\	-ni,	4.b-\	glo-
.	.	.	.	8b-\	-ri-
*	*	*custos:a	*	*	*
!	!	!LO:LB:g=original	!	!	!
4r	.	4r	.	4cc\	-a-
4f\	et	4a\	et	4cc\	-mi-
=26-	=26-	=26-	=26-	=26-	=26-
4.c/	glo-	4.g/	glo-	2cc\	-ni,
8c/	-ri-	8g/	-ri-	.	.
4g\	-a-	4b-\	-a-	4r	.
4g\	-mi-	4g/	-mi-	4b-\	et
=27-	=27-	=27-	=27-	=27-	=27-
2d\	-ni	2a\	-ni,	4.a\	glo-
.	.	.	.	8a\	-ri-
*custos:g	*	*	*	*	*
!LO:LB:g=original	!	!	!	!	!
4r	.	4r	.	4b-\	-a-
4g\	et	4g/	et	4b-\	-mi-
=28-	=28-	=28-	=28-	=28-	=28-
2d\	glo-	2a\	glo-	2a\	-ni
2g\	-ri-	2b-\	-ri-	4dd\	glo-
.	.	.	.	4dd\	-ri-
*	*	*	*	*custos:dd	*
=29-	=29-	=29-	=29-	=29-	=29-
!	!	!	!	!LO:LB:g=original	!
2.d\	-a-	2.a\	-a-	2.dd\	-a-
4d\	-mi-	4a\	-mi-	4dd\	-mi-
=30-	=30-	=30-	=30-	=30-	=30-
!	!	!LO:N:acc=#	!	!LO:TX:a:t=P:problem:# below	!
!LO:TX:t=P:problem:przerywana kreska pseudotaktowa	!	!LO:TX:a:t=P:problem:# below	!	!LO:N:acc=#	!
1g	-ni	1bn	-ni	1bn	-ni,
=31-	=31-	=31-	=31-	=31-	=31-
4B-/	om-	4b-y\	om-	0r	.
4B-/	-nes	4b-\	-nes	.	.
4F/	re-	4a\	re-	.	.
4G/	-cti-	4g/	-cti-	.	.
=32-	=32-	=32-	=32-	=32-	=32-
!	!	!LO:TX:a:t=P:problem:# below	!	!	!
2d\	-cor-	2f#X/	-cor-	.	.
2G/	-de	2g/	-de,	.	.
=33-	=33-	=33-	=33-	=33-	=33-
0r	.	0r	.	4dd\	om-
.	.	.	.	4dd\	-nes
.	.	.	.	4cc\	re-
.	.	.	.	4b-y\	-cti-
=34-	=34-	=34-	=34-	=34-	=34-
.	.	.	.	2a\	-cor-
.	.	.	.	2b-,\	-de
=35-	=35-	=35-	=35-	=35-	=35-
*	*	*	*	*	*ij
4B-/	om-	4b-\	om-	4b-\	om-
4f\	-nes	4a\	-nes	4cc\	-nes
4c/	re-	4cc\	re-	4cc\	re-
4g\	-cti-	4dd\	-cti-	4b-\	-cti-
=36-	=36-	=36-	=36-	=36-	=36-
2d\	-cor-	2dd\	-cor-	2a\	-cor-
*	*	*custos:b	*	*	*
!	!	!LO:LB:g=original	!	!	!
!	!	!LO:TX:a:t=P:problem:# below	!	!LO:TX:a:t=P:problem:# below	!
!	!	!LO:N:acc=#	!	!LO:N:acc=#	!
2g\	-de	2bn\	-de	2bn\	-de
*	*	*	*	*	*Xij
=37-	=37-	=37-	=37-	=37-	=37-
*M3/2	*	*M3/2	*	*M3/2	*
0.r	.	0.r	.	1dd	Al-
.	.	.	.	2cc\	-le-
=38-	=38-	=38-	=38-	=38-	=38-
.	.	.	.	2.b-y\	-lu-
.	.	.	.	4cc\	.
.	.	.	.	2dd,\	-ia,
=39-	=39-	=39-	=39-	=39-	=39-
1.r	.	1.r	.	2g/	al-
.	.	.	.	2b-\	-le-
*	*	*	*	*custos:a	*
!	!	!	!	!LO:LB:g=original	!
.	.	.	.	2a\	-lu-
=40-	=40-	=40-	=40-	=40-	=40-
2r	.	2r	.	1.b-	-ia;
*custos:B	*	*	*	*	*
!LO:LB:g=original	!	!	!	!	!
2B-/	Al-	2b-y\	Al-	.	.
2F/	-le-	2a\	-le-	.	.
=41-	=41-	=41-	=41-	=41-	=41-
1G	-lu-	1g	-lu-	0.r	.
2d\	-ia	2a\	-ia,	.	.
=42-	=42-	=42-	=42-	=42-	=42-
2g\	Al-	2g/	al-	.	.
2e-X\	-le-	2b-\	-le-	.	.
2f\	-lu-	2a\	-lu-	.	.
=43-	=43-	=43-	=43-	=43-	=43-
*M2/2	*	*M2/2	*	*M2/2	*
*met(C|)	*	*met(C|)	*	*met(C|)	*
2B-/	-ia	2a,<\	-ia,	2r	.
2g\	Al-	2g/	al-	2dd\	Al-
=44-	=44-	=44-	=44-	=44-	=44-
4c/	-le-	2.g/	-le-	2.b-\	-le-
4d\	.	.	.	.	.
4eny\	.	.	.	.	.
4f\	.	4a\	-lu-	4b-\	-lu-
=45-	=45-	=45-	=45-	=45-	=45-
2.g\	.	2b-,<\	-ia	2b-\	-ia
.	.	2b-\	al-	2dd\	al-
8f\L	lu-	.	.	.	.
8e\J	.	.	.	.	.
=46-	=46-	=46-	=46-	=46-	=46-
1d	-ia	2.dd\	-le-	2dd\	-le-
.	.	.	.	2a\	-lu-
.	.	4dd\	-lu-	.	.
=47-	=47-	=47-	=47-	=47-	=47-
!	!	!LO:N:acc=#	!	!LO:SIC:v:s=0bn	!
0gl	.	0bln	-ia,	0bl-	-ia;
!	!	!	!	!LO:TX:t=Na S Micołai	!
==	==	==	==	==	==
*-	*-	*-	*-	*-	*-
!!!system-decoration: [(g1)][(g2)]
!!!RDF**kern: l = terminal long
!!!RDF**kern: > = above
!!!RDF**kern: < = below
!!!ENC: Katarzyna Serwa
!!!END: 2021-10-23
!!!ENC: Filip Voros
!!!END: 2021-10-19
